Adwaita++/status/22/network-wireless-encrypted.svg

<svg height="22" width="22" xmlns="http://www.w3.org/2000/svg" xmlns:xlink="http://www.w3.org/1999/xlink">
  <defs>
    <clipPath id="clipPath5078">
      <path d="m160 247c-7.9134 0-15.037 2.8117-20.945 7.1718l20.94 22.82 20.78-22.9c-5.88-4.31-12.93-7.09-20.78-7.09z"/>
    </clipPath>
    <filter id="filter5060" color-interpolation-filters="sRGB" height="1.288" width="1.205" x="-.1" y="-.14">
      <feGaussianBlur stdDeviation="1.443"/>
    </filter>
    <clipPath id="clipPath5085">
      <path d="m160 247c-7.9134 0-15.037 2.8117-20.945 7.1718l20.94 22.82 20.78-22.9c-5.88-4.31-12.93-7.09-20.78-7.09z"/>
    </clipPath>
    <filter id="filter5064" color-interpolation-filters="sRGB" height="1.385" width="1.274" x="-.14" y="-.19">
      <feGaussianBlur stdDeviation="1.443"/>
    </filter>
  </defs>
  <path d="m10.974 4c-3.9573 0-7.5196 1.4061-10.474 3.5864l10.474 11.412 10.392-11.452c-2.943-2.156-6.465-3.5455-10.392-3.5455z" fill="#4f4f4f"/>
  <path clip-path="url(#clipPath5078)" d="m159.9 252.99c-6.3037 0-12.154 2.0674-16.853 5.5589l16.941 18.441 16.765-18.441c-4.71-3.49-10.56-5.56-16.86-5.56z" filter="url(#filter5060)" opacity=".2" transform="matrix(.50007 0 0 .50007 -69.029 -119.52)"/>
  <path d="m10.933 6.9962c-3.1523 0-6.0779 1.0339-8.4277 2.7799l8.4717 9.2219 8.384-9.2224c-2.35-1.7462-5.275-2.7798-8.428-2.7798z" fill="#797979"/>
  <path clip-path="url(#clipPath5085)" d="m159.9 258.99c-4.7278 0-9.1156 1.5505-12.64 4.1692l12.706 13.831 12.574-13.831c-3.524-2.6186-7.9119-4.1692-12.64-4.1692z" filter="url(#filter5064)" opacity=".2" transform="matrix(.50007 0 0 .50007 -69.029 -119.52)"/>
  <path d="m10.933 9.997c-2.3642 0-4.5585.77536-6.3209 2.0849l6.3539 6.916 6.288-6.916c-1.762-1.31-3.956-2.0852-6.321-2.0852z" fill="#e4e4e4"/>
  <g fill="#fff">
    <path d="m10.974 4c-3.9573 0-7.5196 1.4061-10.474 3.5865l.28129.30668c2.8994-2.0658 6.3581-3.3931 10.193-3.3931 3.8051 0 7.2256 1.3114 10.112 3.354l.28032-.30864c-2.9439-2.1558-6.4659-3.5453-10.393-3.5453z" opacity=".1"/>
    <path d="m10.934 6.9957c-3.1523 0-6.0784 1.0347-8.4282 2.7807l.2819.307c2.3009-1.6243 5.1163-2.5871 8.1453-2.5871 3.0307 0 5.8454.96389 8.1467 2.5892l.28-.3086c-2.349-1.7462-5.274-2.7809-8.426-2.7809z" opacity=".1"/>
    <path d="m10.934 9.996c-2.3642 0-4.559.77576-6.3214 2.0853l.28227.30668c1.7127-1.1885 3.7973-1.8919 6.0389-1.8919 2.2426 0 4.3268.7044 6.0399 1.8938l.28032-.30864c-1.762-1.31-3.956-2.0859-6.32-2.0859z" opacity=".1"/>
  </g>
  <path d="m21.088 7.8568-10.114 11.145-10.194-11.106c-.092.0651-.1888.1246-.28.1921l10.474 11.412 10.392-11.453c-.091-.066-.186-.1251-.278-.19z" opacity=".2"/>
  <rect height="10" opacity=".2" rx="1.5" width="10" x="10" y="11.5"/>
  <rect fill="#38ac52" height="10" rx="1.5" width="10" x="10" y="11"/>
  <path d="m15 11.99975c-1.108 0-2 .9108-2 2.03125v.969h-.5c-.277 0-.5.223-.5.5v3c0 .277.223.5.5.5h5c.277 0 .5-.223.5-.5v-3c0-.277-.223-.5-.5-.5h-.5v-.96875c0-1.12-.892-2.031-2-2.031zm0 1c.554 0 1 .446 1 1v1h-2v-1c0-.554.446-1 1-1z" fill="#fff"/>
</svg>

<svg xmlns="http://www.w3.org/2000/svg" width="22" height="22" version="1">
 <defs>
  <clipPath id="clipPath5078" clipPathUnits="userSpaceOnUse">
   <path d="m 160,247 c -7.9134,0 -15.037,2.8117 -20.945,7.1718 l 20.94,22.82 20.78,-22.9 c -5.88,-4.31 -12.93,-7.09 -20.78,-7.09 z" style="fill:#2095f2"/>
  </clipPath>
  <filter id="filter5060" width="1.205" height="1.288" x="-.1" y="-.14" style="color-interpolation-filters:sRGB">
   <feGaussianBlur stdDeviation="1.443"/>
  </filter>
  <clipPath id="clipPath5085" clipPathUnits="userSpaceOnUse">
   <path d="m 160,247 c -7.9134,0 -15.037,2.8117 -20.945,7.1718 l 20.94,22.82 20.78,-22.9 c -5.88,-4.31 -12.93,-7.09 -20.78,-7.09 z" style="fill:#2095f2"/>
  </clipPath>
  <filter id="filter5064" width="1.274" height="1.385" x="-.14" y="-.19" style="color-interpolation-filters:sRGB">
   <feGaussianBlur stdDeviation="1.443"/>
  </filter>
 </defs>
 <path d="M 10.974,4 C 7.0167,4 3.4544,5.4061 0.5,7.5864 L 10.974,18.9984 21.366,7.5464 C 18.423,5.3904 14.901,4.0009 10.974,4.0009 Z" style="fill:#4f4f4f"/>
 <path d="m 159.9,252.99 c -6.3037,0 -12.154,2.0674 -16.853,5.5589 l 16.941,18.441 16.765,-18.441 c -4.71,-3.49 -10.56,-5.56 -16.86,-5.56 z" clip-path="url(#clipPath5078)" transform="matrix(0.50007,0,0,0.50007,-69.029,-119.52)" style="opacity:0.2;filter:url(#filter5060)"/>
 <path d="m 10.933,6.9962 c -3.1523,0 -6.0779,1.0339 -8.4277,2.7799 L 10.977,18.998 19.361,9.7756 C 17.011,8.0294 14.086,6.9958 10.933,6.9958 Z" style="fill:#797979"/>
 <path d="m 159.9,258.99 c -4.7278,0 -9.1156,1.5505 -12.64,4.1692 l 12.706,13.831 12.574,-13.831 c -3.524,-2.6186 -7.9119,-4.1692 -12.64,-4.1692 z" clip-path="url(#clipPath5085)" transform="matrix(0.50007,0,0,0.50007,-69.029,-119.52)" style="opacity:0.2;filter:url(#filter5064)"/>
 <path d="m 10.933,9.997 c -2.3642,0 -4.5585,0.77536 -6.3209,2.0849 l 6.3539,6.916 6.288,-6.916 c -1.762,-1.31 -3.956,-2.0852 -6.321,-2.0852 z" style="fill:#e4e4e4"/>
 <path d="M 10.974,4 C 7.0167,4 3.4544,5.4061 0.5,7.5865 l 0.28129,0.30668 c 2.8994,-2.0658 6.3581,-3.3931 10.193,-3.3931 3.8051,0 7.2256,1.3114 10.112,3.354 l 0.28032,-0.30864 c -2.9439,-2.1558 -6.4659,-3.5453 -10.393,-3.5453 z" style="opacity:0.1;fill:#ffffff"/>
 <path d="m 10.934,6.9957 c -3.1523,0 -6.0784,1.0347 -8.4282,2.7807 l 0.2819,0.307 C 5.0886,8.4591 7.904,7.4963 10.933,7.4963 c 3.0307,0 5.8454,0.96389 8.1467,2.5892 l 0.28,-0.3086 C 17.0107,8.0307 14.0857,6.996 10.9337,6.996 Z" style="opacity:0.1;fill:#ffffff"/>
 <path d="m 10.934,9.996 c -2.3642,0 -4.559,0.77576 -6.3214,2.0853 l 0.28227,0.30668 c 1.7127,-1.1885 3.7973,-1.8919 6.0389,-1.8919 2.2426,0 4.3268,0.7044 6.0399,1.8938 l 0.28032,-0.30864 c -1.762,-1.31 -3.956,-2.0859 -6.32,-2.0859 z" style="opacity:0.1;fill:#ffffff"/>
 <path d="M 21.088,7.8568 10.974,19.0018 0.78,7.8958 C 0.688,7.9609 0.5912,8.0204 0.5,8.0879 L 10.974,19.4999 21.366,8.0469 C 21.275,7.9809 21.18,7.9218 21.088,7.8569 Z" style="opacity:0.2"/>
 <rect width="10" height="10" x="10" y="11.5" rx="1.5" ry="1.5" style="opacity:0.2"/>
 <rect style="fill:#38ac52" width="10" height="10" x="10" y="11" rx="1.5" ry="1.5"/>
 <path style="fill:#ffffff" d="m 15,11.99975 c -1.108,0 -2,0.9108 -2,2.03125 V 15 H 12.5 C 12.223,15 12,15.223 12,15.5 v 3 c 0,0.277 0.223,0.5 0.5,0.5 h 5 c 0.277,0 0.5,-0.223 0.5,-0.5 v -3 C 18,15.223 17.777,15 17.5,15 H 17 v -0.96875 c 0,-1.12 -0.892,-2.031 -2,-2.031 z m 0,1 c 0.554,0 1,0.446 1,1 v 1 h -2 v -1 c 0,-0.554 0.446,-1 1,-1 z"/>
</svg>
